X:282
T:Star of Munster Jig
R:jig
H:This is a jig version of "The Star of Munster", reel#11
Z:id:hn-jig-282
M:6/8
K:Amix
cBA BAG|AGE GED|EAA ABd|eaf ged|
cBA BAG|AGE GED|EAA ABd|edB A3:|
|:eaa age|~a3 age|~g3 ged|gag ged|
eaa age|~a3 age|~g3 aga|b2a ged:|

